images/hostel.svg

<?xml version="1.0" encoding="UTF-8" standalone="no"?>
<svg xmlns:dc="http://purl.org/dc/elements/1.1/" xmlns:cc="http://creativecommons.org/ns#" xmlns:rdf="http://www.w3.org/1999/02/22-rdf-syntax-ns#" xmlns:svg="http://www.w3.org/2000/svg" xmlns="http://www.w3.org/2000/svg" xmlns:sodipodi="http://sodipodi.sourceforge.net/DTD/sodipodi-0.dtd" xmlns:inkscape="http://www.inkscape.org/namespaces/inkscape" id="svg2" viewBox="0 0 14 14" height="14" width="14" version="1.1" sodipodi:docname="hostel.svg" inkscape:version="0.92.3 (2405546, 2018-03-11)">
  <sodipodi:namedview pagecolor="#ffffff" bordercolor="#666666" borderopacity="1" objecttolerance="10" gridtolerance="10" guidetolerance="10" inkscape:pageopacity="0" inkscape:pageshadow="2" inkscape:window-width="1881" inkscape:window-height="1051" id="namedview15994" showgrid="false" inkscape:zoom="16.857143" inkscape:cx="-3.4703389" inkscape:cy="7.0000001" inkscape:window-x="0" inkscape:window-y="0" inkscape:window-maximized="1" inkscape:current-layer="svg2" inkscape:pagecheckerboard="true" />
  <metadata id="metadata8">
    <rdf:RDF>
      <cc:Work rdf:about="">
        <dc:format>image/svg+xml</dc:format>
        <dc:type rdf:resource="http://purl.org/dc/dcmitype/StillImage" />
        <dc:title></dc:title>
      </cc:Work>
    </rdf:RDF>
  </metadata>
  <defs id="defs6" />
  <path id="outline" d="M 0.5,0 C 0.223,0 0,0.223 0,0.5 V 1 V 5 V 6 V 11 V 12 V 12.5 V 14 H 1 V 12.5 V 12 H 13 V 13.5 V 14 H 14 V 4 V 2.5 C 14,2.223 13.777,2 13.5,2 C 13.223,2 13,2.223 13,2.5 V 5 H 1 V 1 V 0.5 C 1,0.223 0.777,0 0.5,0 Z M 3.5,1 C 2.671573,1 2,1.671573 2,2.5 C 2,3.328427 2.671573,4 3.5,4 C 4.328427,4 5,3.328427 5,2.5 C 5,1.671573 4.328427,1 3.5,1 Z M 6,2 V 4 H 12 C 12,3 10.963825,2 10,2 Z M 1,6 H 13 V 11 H 1 Z M 3.5,7 C 2.671573,7 2,7.671573 2,8.5 C 2,9.328427 2.671573,10 3.5,10 C 4.328427,10 5,9.328427 5,8.5 C 5,7.671573 4.328427,7 3.5,7 Z M 6,8 V 10 L 12,10.013672 C 12,9.0007917 10.963825,8 10,8 Z" style="stroke:#ffffff;stroke-width:3;stroke-linecap:round;stroke-linejoin:round;stroke-miterlimit:4;stroke-dasharray:none;stroke-opacity:0.50196078;fill:none" inkscape:connector-curvature="0" />
  <path d="M 0.5 0 C 0.223 0 0 0.223 0 0.5 L 0 1 L 0 5 L 0 6 L 0 11 L 0 12 L 0 12.5 L 0 14 L 1 14 L 1 12.5 L 1 12 L 13 12 L 13 13.5 L 13 14 L 14 14 L 14 4 L 14 2.5 C 14 2.223 13.777 2 13.5 2 C 13.223 2 13 2.223 13 2.5 L 13 5 L 1 5 L 1 1 L 1 0.5 C 1 0.223 0.777 0 0.5 0 z M 3.5 1 C 2.671573 1 2 1.671573 2 2.5 C 2 3.328427 2.671573 4 3.5 4 C 4.328427 4 5 3.328427 5 2.5 C 5 1.671573 4.328427 1 3.5 1 z M 6 2 L 6 4 L 12 4 C 12 3 10.963825 2 10 2 L 6 2 z M 1 6 L 13 6 L 13 11 L 1 11 L 1 6 z M 3.5 7 C 2.671573 7 2 7.671573 2 8.5 C 2 9.328427 2.671573 10 3.5 10 C 4.328427 10 5 9.328427 5 8.5 C 5 7.671573 4.328427 7 3.5 7 z M 6 8 L 6 10 L 12 10.013672 C 12 9.0007917 10.963825 8 10 8 L 6 8 z " id="hostel" />
</svg>

<svg xmlns="http://www.w3.org/2000/svg" height="14" width="14">
    <path d="M.5 0C.223 0 0 .223 0 .5V14h1v-2h12v2h1V2.5a.499.499 0 10-1 0V5H1V.5C1 .223.777 0 .5 0zm3 1a1.5 1.5 0 100 3 1.5 1.5 0 000-3zM6 2v2h6c0-1-1.036-2-2-2zM1 6h12v5H1zm2.5 1a1.5 1.5 0 100 3 1.5 1.5 0 000-3zM6 8v2l6 .014C12 9 10.964 8 10 8z" stroke="#fff" stroke-width="3" stroke-linecap="round" stroke-linejoin="round" stroke-opacity=".5" fill="none"/>
    <path d="M.5 0C.223 0 0 .223 0 .5V14h1v-2h12v2h1V2.5a.499.499 0 10-1 0V5H1V.5C1 .223.777 0 .5 0zm3 1a1.5 1.5 0 100 3 1.5 1.5 0 000-3zM6 2v2h6c0-1-1.036-2-2-2H6zM1 6h12v5H1V6zm2.5 1a1.5 1.5 0 100 3 1.5 1.5 0 000-3zM6 8v2l6 .014C12 9 10.964 8 10 8H6z"/>
</svg>
